X:1
T:Title
%%score { ( 1 3 ) | 2 }
L:1/8
Q:1/4=100
M:4/4
K:F
V:1 treble nm="Grand Piano"
V:3 treble 
V:2 bass 
V:1
 FFFF F2 [EG]2 | A6 z2 | A2 Bd c2 A2 | [EG]6 z2 | AAAA [DFA]2 [DAc]2 | [DGB]6 z2 | %6
w: W.~H.~Doane * * * * *||||||
 z4 z2 E2[Q:1/4=99][Q:1/4=97][Q:1/4=96][Q:1/4=94][Q:1/4=93][Q:1/4=91][Q:1/4=90][Q:1/4=88][Q:1/4=87][Q:1/4=85][Q:1/4=84][Q:1/4=82][Q:1/4=81][Q:1/4=79][Q:1/4=78][Q:1/4=76] | %7
w: |
 F6 z2 |] %8
w: |
V:2
 [F,A,C][F,A,C][F,A,C][F,A,C] [D,A,D]2 [C,C]2 | [F,CF]6 z2 | %2
 [F,CF]2 [F,DF][F,B,F] [F,A,F]2 [F,CF]2 | [C,C]6 z2 | [F,CF][F,CF][F,CF][F,CF] D,2 ^F,2 | G,6 z2 | %6
 A,,B,,[C,A,C][D,F,A,] [C,A,C]2 .[C,G,C]2 | [F,A,C]6 z2 |] %8
V:3
 x8 | x8 | x8 | x8 | x8 | x8 | [CFA][B,DG]FF F2 z B, | x8 |] %8

